X: 35968
T: Sarah's Song
R: waltz
M: 3/4
K: Dmajor
M:3/4
L: 1/8
K: D
A "A7"f>g|"D"f3 A d>c|"G"cB3 gf|"Em"e3 d ef|"A7"A3 A fg|"D"f3 A d>c|"G"cB3 "Em"gB|"A7"c3 d e>d|"D"d3:|
A "A7"a>g|"Bm"f3 d "Em"gB|"A7"cA3 G>A|"G"B3 d ef|"A7"A3 A a>g|"D"f3 d "G"gB|"A7"cA3 G>A|"G"B3 d "A7"e>d|"D"d3 A "A7"a>g|
"Bm"f3 d "Em"gB|"A7"cA3 G>A|"G"B3 d "Em"ef|"A7"A3 A f>g|"D"f3 A d>c|"G"cB3 "Em"gB|"A7"c3 d e>d|"D"d3||

